X:64
T:Girl I Left Behind Me
S:American Veteran Fifer #64
M:2/4
L:1/8
Q:1/8=180
K:G 
%%MIDI program 72
%%MIDI transpose 8
%%MIDI ratio 3 1
|: e | dB c/B/A/G/ | BG E>F | GG G/A/B/c/ | d2 Bg/f/ |
ed c/B/A/G/ | BG E>G | FA DE/F/ | G2 G :|
|: G/A/ | Bdef | gdBG | Bdef | g2 fg/f/ |
ed c/B/A/G/ | BG E>G | FA DE/F/ | G2 G :|


